!!!COM: de Févin, Antoine
!!!CDT: ~1470//-~1511//
!!!OPR: Missa Ave Maria
!!!ONM: 1
!!!OTL: Kyrie
!!!AGN: Mass; Kyrie
!!!SCT: Fva1001a
!!!SCA: Fva1001a
!!!voices-OPR: 4
!!!voices: 4
**kern	**text	**kern	**text	**kern	**text	**kern	**text
*staff4	*staff4	*staff3	*staff3	*staff2	*staff2	*staff1	*staff1
*Ivox	*	*Ivox	*	*Ivox	*	*Ivox	*
*I"Bassus	*	*I"Tenor	*	*I"Altus	*	*I"Superius	*
*I'B	*	*I'T	*	*I'A	*	*I'S	*
*>[A,B,C]	*>[A,B,C]	*>[A,B,C]	*>[A,B,C]	*>[A,B,C]	*>[A,B,C]	*>[A,B,C]	*>[A,B,C]
*>A	*>A	*>A	*>A	*>A	*>A	*>A	*>A
*clefF4	*	*clefGv2	*	*clefGv2	*	*clefG2	*
*k[]	*	*k[]	*	*k[]	*	*k[]	*
*M2/1	*	*M2/1	*	*M2/1	*	*M2/1	*
*met(C|)	*	*met(C|)	*	*met(C|)	*	*met(C|)	*
!!section: Kyrie I
!!!OMD: Kyrie I
=1-	=1-	=1-	=1-	=1-	=1-	=1-	=1-
0r	.	0r	.	1G	Ky-	0r	.
.	.	.	.	[1c	-ri-	.	.
=2	=2	=2	=2	=2	=2	=2	=2
0r	.	0r	.	1c]	.	0r	.
.	.	.	.	1c	-e	.	.
=3	=3	=3	=3	=3	=3	=3	=3
0r	.	0r	.	1d	[e-	1r	.
.	.	.	.	[1e	-lei-	1g	Ky-
=4	=4	=4	=4	=4	=4	=4	=4
0r	.	0r	.	2e\]	.	0cc	-ri-
.	.	.	.	4d\	.	.	.
.	.	.	.	4c\	.	.	.
.	.	.	.	1f	.	.	.
=5	=5	=5	=5	=5	=5	=5	=5
0r	.	0r	.	2e\	.	1cc	-e
.	.	.	.	1f	.	.	.
.	.	.	.	.	.	1dd	[e-
.	.	.	.	4e\	.	.	.
.	.	.	.	4d\	.	.	.
=6	=6	=6	=6	=6	=6	=6	=6
0r	.	0r	.	1c	.	1.ee	-lei-
.	.	.	.	1g	.	.	.
.	.	.	.	.	.	4dd\	.
.	.	.	.	.	.	4cc\	.
=7	=7	=7	=7	=7	=7	=7	=7
0r	.	0r	.	1a	.	1ff	.
.	.	.	.	2g\	.	2ee\	.
.	.	.	.	[2a\	.	[2ff\	.
=8	=8	=8	=8	=8	=8	=8	=8
0r	.	0r	.	2a\]	.	2ff\]	.
.	.	.	.	4g\	.	4ee\	.
.	.	.	.	4f\	.	4dd\	.
.	.	.	.	4e\	.	2cc\	.
.	.	.	.	4d\	.	.	.
.	.	.	.	[2f\	.	[2dd\	.
=9	=9	=9	=9	=9	=9	=9	=9
0r	.	1r	.	4f\]	.	4dd\]	.
.	.	.	.	4e\	.	4cc\	.
.	.	.	.	4d\	.	1cc	.
.	.	.	.	4c\	.	.	.
.	.	1G	Ky-	1d	.	.	.
.	.	.	.	.	.	2b\	.
=10	=10	=10	=10	=10	=10	=10	=10
1C	Ky-	0c	-ri-	0c	-son,]	0cc	-son,]
[1F	-ri-	.	.	.	.	.	.
=11	=11	=11	=11	=11	=11	=11	=11
1F]	.	1c	-e	0r	.	0r	.
1F	-e	1d	[e-	.	.	.	.
=12	=12	=12	=12	=12	=12	=12	=12
1G	.	1e	.	1G	[Ky-	0r	.
2.A\	[e-	2.c\	-lei-	[1c	-ri-	.	.
4G\	.	4B\	.	.	.	.	.
=13	=13	=13	=13	=13	=13	=13	=13
4F\	.	4A/	.	1c]	.	1r	.
4E\	.	4G/	.	.	.	.	.
1F	-lei-	2.A/	.	.	.	.	.
.	.	.	.	1c	-e	1r	.
.	.	4G/	.	.	.	.	.
2E\	.	[2c\	.	.	.	.	.
=14	=14	=14	=14	=14	=14	=14	=14
1D	.	2c\]	.	1d	e-	1r	.
.	.	2B\	.	.	.	.	.
1C	.	1c	-son,]	1e	.	1g	[Ky-
=15	=15	=15	=15	=15	=15	=15	=15
2.A\	.	0r	.	2.c\	-lei-	0cc	-ri-
4G\	.	.	.	4B\	.	.	.
4F\	.	.	.	4A/	.	.	.
4E\	.	.	.	4G/	.	.	.
[2F\	.	.	.	[2A/	.	.	.
=16	=16	=16	=16	=16	=16	=16	=16
2F\]	.	0r	.	4A/]	.	1cc	-e
.	.	.	.	4G/	.	.	.
2E\	.	.	.	1c	.	.	.
1D	-son,	.	.	.	.	1dd	e-
.	.	.	.	2B\	.	.	.
=17	=17	=17	=17	=17	=17	=17	=17
0C	Ky-	1G	[Ky-	0c	-son,]	1ee	.
.	.	[1c	-ri-	.	.	2.cc\	-lei-
.	.	.	.	.	.	4b\	.
=18	=18	=18	=18	=18	=18	=18	=18
1F	-ri-	1c]	.	0r	.	4a/	.
.	.	.	.	.	.	4g/	.
.	.	.	.	.	.	2.a/	.
1A	.	1c	-e	.	.	.	.
.	.	.	.	.	.	4g/	.
.	.	.	.	.	.	[2cc\	.
=19	=19	=19	=19	=19	=19	=19	=19
1G	-e	1d	e-	0r	.	2cc\]	.
.	.	.	.	.	.	2b\	.
2.c\	e-	1e	.	.	.	[1cc	-son,]
4B\	.	.	.	.	.	.	.
=20	=20	=20	=20	=20	=20	=20	=20
4A\	.	2.c\	-lei-	0r	.	1cc]	.
4G\	.	.	.	.	.	.	.
2A\	.	.	.	.	.	.	.
.	.	4d\	.	.	.	.	.
2G\	.	2e\	.	.	.	1r	.
[2A\	-lei-	[2f\	.	.	.	.	.
=21	=21	=21	=21	=21	=21	=21	=21
4A\]	.	2f\]	.	0r	.	0r	.
4G\	.	.	.	.	.	.	.
2E\	.	1e	.	.	.	.	.
1F	.	.	.	.	.	.	.
.	.	2d\	.	.	.	.	.
=22	=22	=22	=22	=22	=22	=22	=22
0E	-son,	0e	-son,]	2r	.	0r	.
.	.	.	.	1g	[e-	.	.
.	.	.	.	4f\	.	.	.
.	.	.	.	4e\	.	.	.
=23	=23	=23	=23	=23	=23	=23	=23
0G	Ky-	0r	.	2d\	.	0r	.
.	.	.	.	1e	-lei-	.	.
.	.	.	.	4d\	.	.	.
.	.	.	.	4c\	.	.	.
=24	=24	=24	=24	=24	=24	=24	=24
1G	-ri-	2r	.	0B	-son,]	0r	.
.	.	1e	[e-	.	.	.	.
2.E\	-e	.	.	.	.	.	.
.	.	4d\	.	.	.	.	.
4F\	.	4c\	.	.	.	.	.
=25	=25	=25	=25	=25	=25	=25	=25
2G\	.	2B\	.	0r	.	1r	.
1A	e-	1c	-lei-	.	.	.	.
.	.	.	.	.	.	1r	.
4G\	.	4B\	.	.	.	.	.
4F\	.	4A/	.	.	.	.	.
=26	=26	=26	=26	=26	=26	=26	=26
2E\	.	4G/	.	0r	.	0r	.
.	.	4A/	.	.	.	.	.
2.G\	-lei-	4B\	.	.	.	.	.
.	.	4c\	.	.	.	.	.
.	.	2d\	.	.	.	.	.
4F\	.	.	.	.	.	.	.
4E\	.	[2e\	.	.	.	.	.
4D\	.	.	.	.	.	.	.
=27	=27	=27	=27	=27	=27	=27	=27
2C/	.	4e\]	.	0r	.	0r	.
.	.	4d\	.	.	.	.	.
2E\	.	1c	.	.	.	.	.
1D	.	.	.	.	.	.	.
.	.	2B\	.	.	.	.	.
=28	=28	=28	=28	=28	=28	=28	=28
[0C	-son,]	0c	-son,]	1G	[Ky-	1r	.
.	.	.	.	2.c\	-ri-	1g	[Ky-
.	.	.	.	4d\	.	.	.
=29	=29	=29	=29	=29	=29	=29	=29
0C]	.	1r	.	4e\	.	0cc	-ri-
.	.	.	.	4f\	.	.	.
.	.	.	.	2g\	.	.	.
.	.	1G	[Ky-	2c\	-e	.	.
.	.	.	.	2g\	e-	.	.
=30	=30	=30	=30	=30	=30	=30	=30
1r	.	1A	-ri-	2e\	-lei-	1cc	-e
.	.	.	.	2f\	.	.	.
1G	[Ky-	1B	-e	1d	.	1dd	.
=31	=31	=31	=31	=31	=31	=31	=31
2.c\	-ri-	1.c	e-	0c	-son,]	1ee	e-
4B\	.	.	.	.	.	.	.
2A\	.	.	.	.	.	1cc	.
2G\	-e	2B\	.	.	.	.	.
=32	=32	=32	=32	=32	=32	=32	=32
2F\	.	2.A/	-lei-	1r	.	1.ff	-lei-
2E\	.	.	.	.	.	.	.
.	.	4G/	.	.	.	.	.
2D\	.	2A/	.	1d	[Ky-	.	.
2BB/	.	2B\	.	.	.	4ee\	.
.	.	.	.	.	.	4dd\	.
=33	=33	=33	=33	=33	=33	=33	=33
1C	e-	2G/	.	0g	-ri-	2.ee\	.
.	.	1c	.	.	.	.	.
.	.	.	.	.	.	4dd\	.
1G	-lei-	.	.	.	.	2ee\	.
.	.	2B\	.	.	.	[2dd\	.
=34	=34	=34	=34	=34	=34	=34	=34
1A	.	1c	.	2e\	-e	4dd\]	.
.	.	.	.	.	.	4cc\	.
.	.	.	.	2f\	e-	1cc	.
1G	.	1d	.	1g	-lei-	.	.
.	.	.	.	.	.	2b\	.
=35	=35	=35	=35	=35	=35	=35	=35
[0Cl	-son.]	[0cl	-son.]	1e	.	[0ccl	-son.]
.	.	.	.	1c	.	.	.
=36	=36	=36	=36	=36	=36	=36	=36
0C]	.	0c]	.	0gl	-son.]	0cc]	.
!!LO:LB:i:g=z
=37||	=37||	=37||	=37||	=37||	=37||	=37||	=37||
*>B	*>B	*>B	*>B	*>B	*>B	*>B	*>B
*clefF4	*	*clefGv2	*	*clefGv2	*	*clefG2	*
*k[]	*	*k[]	*	*k[]	*	*k[]	*
*M2/1	*	*M2/1	*	*M2/1	*	*M2/1	*
*met(C|)	*	*met(C|)	*	*met(C|)	*	*met(C|)	*
!!section: Christe
!!!OMD: Christe
0r	.	0r	.	2.c\	Chri-	1r	.
.	.	.	.	4d\	.	.	.
.	.	.	.	2e\	.	1r	.
.	.	.	.	[2f\	-ste	.	.
=38	=38	=38	=38	=38	=38	=38	=38
0r	.	0r	.	2f\]	.	1.cc	Chri-
.	.	.	.	4e\	[e-	.	.
.	.	.	.	4d\	.	.	.
.	.	.	.	4e\	.	.	.
.	.	.	.	4f\	.	.	.
.	.	.	.	[2g\	.	2b\	-ste
=39	=39	=39	=39	=39	=39	=39	=39
0r	.	0r	.	2g\]	.	1a	[e-
.	.	.	.	2f#i\	.	.	.
.	.	.	.	2g\	-lei-	2.g/	-lei-
.	.	.	.	4fi\	.	.	.
.	.	.	.	4e\	.	8a/L	.
.	.	.	.	.	.	8g/J	.
=40	=40	=40	=40	=40	=40	=40	=40
0r	.	0r	.	4f\	.	4a/	.
.	.	.	.	4e\	.	4b\	.
.	.	.	.	4d\	.	1cc	.
.	.	.	.	4c\	.	.	.
.	.	.	.	1d	.	.	.
.	.	.	.	.	.	2b\	.
=41	=41	=41	=41	=41	=41	=41	=41
2.C/	Chri-	0r	.	0c	-son,]	0cc	-son,]
4D\	.	.	.	.	.	.	.
2E\	.	.	.	.	.	.	.
[2F\	-ste	.	.	.	.	.	.
=42	=42	=42	=42	=42	=42	=42	=42
2F\]	.	1.c	Chri-	0r	.	0r	.
4E\	[e-	.	.	.	.	.	.
4D\	.	.	.	.	.	.	.
4E\	.	.	.	.	.	.	.
4F\	.	.	.	.	.	.	.
[2G\	.	2B\	-ste	.	.	.	.
=43	=43	=43	=43	=43	=43	=43	=43
2G\]	.	1A	[e-	0r	.	0r	.
2F#i\	.	.	.	.	.	.	.
2G\	-lei-	2G/	-lei-	.	.	.	.
4Fni\	.	4A/	.	.	.	.	.
4E\	.	4G/	.	.	.	.	.
=44	=44	=44	=44	=44	=44	=44	=44
4F\	.	4A/	.	0r	.	0r	.
4E\	.	4B\	.	.	.	.	.
4D\	.	1c	.	.	.	.	.
4C/	.	.	.	.	.	.	.
1D	.	.	.	.	.	.	.
.	.	2B\	.	.	.	.	.
=45	=45	=45	=45	=45	=45	=45	=45
1C	-son,]	1c	-son,]	2r	.	2.g/	[Chri-
.	.	.	.	2.g\	[Chri-	.	.
.	.	.	.	.	.	4a/	.
1r	.	1r	.	.	.	2b\	.
.	.	.	.	4f\	.	.	.
.	.	.	.	4e\	.	[2cc\	-ste
.	.	.	.	4d\	.	.	.
=46	=46	=46	=46	=46	=46	=46	=46
1r	.	0r	.	2e\	.	2cc\]	.
.	.	.	.	2c\	.	4b\	.
.	.	.	.	.	.	4a/	.
2.G\	[Chri-	.	.	2d\	-ste	2.b\	.
.	.	.	.	2G/	e-	.	.
4A\	.	.	.	.	.	4cc\	.
=47	=47	=47	=47	=47	=47	=47	=47
2B\	.	0r	.	1g	-lei-	2dd\	.
1c	-ste	.	.	.	.	1ee	e-
.	.	.	.	2e\	.	.	.
4B\	e-	.	.	2f\	.	4dd\	.
4A\	.	.	.	.	.	4cc\	.
=48	=48	=48	=48	=48	=48	=48	=48
4B\	.	0r	.	2d\	.	2.dd\	-lei-
4c\	.	.	.	.	.	.	.
1d	-lei-	.	.	1f	.	.	.
.	.	.	.	.	.	4cc\	.
.	.	.	.	.	.	4b\	.
.	.	.	.	.	.	4a/	.
2c\	.	.	.	2e\	.	2cc\	.
=49	=49	=49	=49	=49	=49	=49	=49
2d\	.	0r	.	2.f\	.	2b\	.
4c\	.	.	.	.	.	2.a/	.
4B\	.	.	.	4e\	.	.	.
4c\	.	.	.	4d\	.	.	.
4B\	.	.	.	4e\	.	4g/	.
4A\	.	.	.	[2d\	.	[2g/	.
4G\	.	.	.	.	.	.	.
=50	=50	=50	=50	=50	=50	=50	=50
1A	-son,]	1r	.	2d\]	.	2g/]	.
.	.	.	.	2c\	.	2f#i/	.
2r	.	2.G/	[Chri-	1d	-son,]	[1g	-son,]
[2G\	[Chri-	.	.	.	.	.	.
.	.	4A/	.	.	.	.	.
=51	=51	=51	=51	=51	=51	=51	=51
4G\]	.	2B\	.	0r	.	1g]	.
4F\	.	.	.	.	.	.	.
4E\	.	1c	.	.	.	.	.
4D\	.	.	.	.	.	.	.
2E\	.	.	.	.	.	1r	.
2C/	.	4B\	.	.	.	.	.
.	.	4A/	.	.	.	.	.
=52	=52	=52	=52	=52	=52	=52	=52
1G	-ste,]	1B	-ste,]	2r	.	2.g/	[Chri-
.	.	.	.	2.g\	[Chri-	.	.
.	.	.	.	.	.	4a/	.
1r	.	1r	.	.	.	2b\	.
.	.	.	.	4f\	.	.	.
.	.	.	.	4e\	.	[2cc\	-ste
.	.	.	.	4d\	.	.	.
=53	=53	=53	=53	=53	=53	=53	=53
0r	.	1r	.	2e\	.	2cc\]	.
.	.	.	.	2c\	.	4b\	.
.	.	.	.	.	.	4a/	.
.	.	2.G/	[Chri-	2d\	-ste	2.b\	.
.	.	.	.	2G/	e-	.	.
.	.	4A/	.	.	.	4cc\	.
=54	=54	=54	=54	=54	=54	=54	=54
0r	.	2B\	.	1g	-lei-	2dd\	.
.	.	1c	-ste	.	.	1ee	e-
.	.	.	.	2e\	.	.	.
.	.	4B\	.	2f\	.	4dd\	.
.	.	4A/	.	.	.	4cc\	.
=55	=55	=55	=55	=55	=55	=55	=55
0r	.	2B\	.	2d\	.	2dd\	.
.	.	2.c\	e-	4c\	.	2.ee\	.
.	.	.	.	4d\	.	.	.
.	.	.	.	4e\	.	.	.
.	.	4B\	.	4f\	.	4dd\	.
.	.	4A/	.	[2g\	.	2b\	.
.	.	4G/	.	.	.	.	.
=56	=56	=56	=56	=56	=56	=56	=56
1r	.	1A	-lei-	2g\]	.	2.cc\	.
.	.	.	.	2f#i\	.	.	.
.	.	.	.	.	.	4dd\	.
2r	.	[1G	-son,]	1g	-son,]	2b\	.
[2G\	[Chri-	.	.	.	.	2b\	-lei-
=57	=57	=57	=57	=57	=57	=57	=57
4G\]	.	0G]	.	2r	.	1b	-son,]
4F\	.	.	.	.	.	.	.
4E\	.	.	.	2.g\	[Chri-	.	.
4D\	.	.	.	.	.	.	.
2E\	.	.	.	.	.	1r	.
.	.	.	.	4f\	.	.	.
2C/	-ste	.	.	4e\	.	.	.
.	.	.	.	4d\	.	.	.
=58	=58	=58	=58	=58	=58	=58	=58
1G	e-	0r	.	2e\	.	0r	.
.	.	.	.	1d	-ste	.	.
2E\	.	.	.	.	.	.	.
2F\	.	.	.	[2c\	e-	.	.
=59	=59	=59	=59	=59	=59	=59	=59
1D	-lei-	1r	.	2c\]	.	0r	.
.	.	.	.	2B\	-lei-	.	.
[1C	-son,]	2r	.	1c	-son,	.	.
.	.	[2g\	[Chri-	.	.	.	.
=60	=60	=60	=60	=60	=60	=60	=60
0C]	.	4g\]	.	2.g\	Chri-	2r	.
.	.	4f\	.	.	.	.	.
.	.	4e\	.	.	.	2.gg\	[Chri-
.	.	4d\	.	4f\	.	.	.
.	.	2e\	.	4e\	.	.	.
.	.	.	.	4d\	.	4ff\	.
.	.	4d\	.	2e\	-ste	4ee\	.
.	.	4c\	.	.	.	4dd\	.
=61	=61	=61	=61	=61	=61	=61	=61
2r	.	1g	-ste	2.c\	e-	2ee\	.
2G\	[Chri-	.	.	.	.	2.dd\	-ste
.	.	.	.	4B\	.	.	.
2A\	.	2e\	.	1c	-lei-	.	.
.	.	.	.	.	.	4cc\	.
2F\	-ste	2f\	e-	.	.	[2cc\	.
=62	=62	=62	=62	=62	=62	=62	=62
1G	e-	1d	-lei-	1g	.	2cc\]	.
.	.	.	.	.	.	2b\	e-
2.A\	-lei-	[1c	.	1e	.	2.cc\	-lei-
4G\	.	.	.	.	.	4b\	.
=63	=63	=63	=63	=63	=63	=63	=63
4F\	.	1c]	.	0f	.	4a/	.
4E\	.	.	.	.	.	4g/	.
1F	.	.	.	.	.	1a	.
.	.	2.A/	-son.]	.	.	.	.
4E\	.	.	.	.	.	4g/	.
4D\	.	4B\	.	.	.	4f/	.
=64	=64	=64	=64	=64	=64	=64	=64
0Cl	-son.]	0cl	.	0gl	-son.]	0el	-son.]
!!LO:LB:i:g=z
=65||	=65||	=65||	=65||	=65||	=65||	=65||	=65||
*>C	*>C	*>C	*>C	*>C	*>C	*>C	*>C
*clefF4	*	*clefGv2	*	*clefGv2	*	*clefG2	*
*k[]	*	*k[]	*	*k[]	*	*k[]	*
*M2/1	*	*M2/1	*	*M2/1	*	*M2/1	*
*met(C|)	*	*met(C|)	*	*met(C|)	*	*met(C|)	*
!!section: Kyrie II
!!!OMD: Kyrie II
0r	.	0r	.	0c	Ky-	0r	.
=66	=66	=66	=66	=66	=66	=66	=66
0r	.	0r	.	1c	-ri-	0r	.
.	.	.	.	1d	-e	.	.
=67	=67	=67	=67	=67	=67	=67	=67
0C	Ky-	0r	.	1e	[e-	0r	.
.	.	.	.	2c\	.	.	.
.	.	.	.	[2e\	-lei-	.	.
=68	=68	=68	=68	=68	=68	=68	=68
1C	-ri-	0r	.	4e\]	.	0r	.
.	.	.	.	4d\	.	.	.
.	.	.	.	1g	.	.	.
1D	-e	.	.	.	.	.	.
.	.	.	.	2f#i\	.	.	.
=69	=69	=69	=69	=69	=69	=69	=69
1E	[e-	0r	.	0g	-son,]	0g	Ky-
2C/	.	.	.	.	.	.	.
[2E\	-lei-	.	.	.	.	.	.
=70	=70	=70	=70	=70	=70	=70	=70
4E\]	.	0r	.	0r	.	1g	-ri-
4D\	.	.	.	.	.	.	.
1G	.	.	.	.	.	.	.
.	.	.	.	.	.	1a	-e
2F#i\	.	.	.	.	.	.	.
=71	=71	=71	=71	=71	=71	=71	=71
0G	-son,]	0G	Ky-	1r	.	1b	[e-
.	.	.	.	1g	[Ky-	2g/	.
.	.	.	.	.	.	[2b\	-lei-
=72	=72	=72	=72	=72	=72	=72	=72
0r	.	1G	-ri-	1g	-ri-	4b\]	.
.	.	.	.	.	.	4a/	.
.	.	.	.	.	.	1dd	.
.	.	1A	-e	1e	-e	.	.
.	.	.	.	.	.	2cc#i\	.
=73	=73	=73	=73	=73	=73	=73	=73
1r	.	1B	[e-	2d\	e-	0dd	-son,]
.	.	.	.	1g	-lei-	.	.
1G	[Ky-	2G/	.	.	.	.	.
.	.	[2B\	-lei-	4f\	.	.	.
.	.	.	.	4e\	.	.	.
=74	=74	=74	=74	=74	=74	=74	=74
1G	-ri-	4B\]	.	4d\	.	0r	.
.	.	4A/	.	4c\	.	.	.
.	.	1d	.	4B\	.	.	.
.	.	.	.	4A/	.	.	.
1E	-e	.	.	1G	-son,]	.	.
.	.	2c#i\	.	.	.	.	.
=75	=75	=75	=75	=75	=75	=75	=75
2.D\	e-	1.d	.	0r	.	0r	.
4E\	.	.	.	.	.	.	.
4F\	.	.	.	.	.	.	.
4G\	.	.	.	.	.	.	.
4A\	.	4c\	.	.	.	.	.
4B\	.	4B\	.	.	.	.	.
=76	=76	=76	=76	=76	=76	=76	=76
4A\	.	4c\	.	0r	.	0r	.
4G\	.	4B\	.	.	.	.	.
1G	-lei-	4A/	.	.	.	.	.
.	.	4G/	.	.	.	.	.
.	.	1A	.	.	.	.	.
2F#i\	.	.	.	.	.	.	.
=77	=77	=77	=77	=77	=77	=77	=77
0G	-son,]	0G	-son,]	1r	.	2r	.
.	.	.	.	.	.	2g/	[e-
.	.	.	.	1g	[Ky-	4g/	.
.	.	.	.	.	.	4a/	.
.	.	.	.	.	.	4b\	.
.	.	.	.	.	.	4cc\	.
=78	=78	=78	=78	=78	=78	=78	=78
0r	.	0r	.	1g	-ri-	4dd\	.
.	.	.	.	.	.	4ee\	.
.	.	.	.	.	.	1dd	.
.	.	.	.	1e	-e	.	.
.	.	.	.	.	.	2cc#i\	.
=79	=79	=79	=79	=79	=79	=79	=79
0r	.	0r	.	2.d\	e-	1.dd	-lei-
.	.	.	.	4e\	.	.	.
.	.	.	.	4f\	.	.	.
.	.	.	.	4g\	.	.	.
.	.	.	.	4a\	.	4cc\	.
.	.	.	.	4b\	.	4b\	.
=80	=80	=80	=80	=80	=80	=80	=80
0r	.	0r	.	4a\	.	4cc\	.
.	.	.	.	4g\	.	4b\	.
.	.	.	.	1g	.	4a/	.
.	.	.	.	.	.	4g/	.
.	.	.	.	.	.	1a	-son,]
.	.	.	.	2f#i\	.	.	.
=81	=81	=81	=81	=81	=81	=81	=81
0c	[Ky-	0r	.	1.g	-lei-	2r	.
.	.	.	.	.	.	1g	[e-
.	.	.	.	4f\	.	[2a/	-lei-
.	.	.	.	4e\	.	.	.
=82	=82	=82	=82	=82	=82	=82	=82
1A	-ri-	0r	.	4f\	.	4a/]	.
.	.	.	.	4e\	.	4g/	.
.	.	.	.	4d\	.	1cc	.
.	.	.	.	4c\	.	.	.
1G	-e,]	.	.	1d	.	.	.
.	.	.	.	.	.	2b\	.
=83	=83	=83	=83	=83	=83	=83	=83
2r	.	0c	[Ky-	0c	-son,]	0cc	-son,]
2.c\	[e-	.	.	.	.	.	.
4B\	.	.	.	.	.	.	.
[2A\	-lei-	.	.	.	.	.	.
=84	=84	=84	=84	=84	=84	=84	=84
2A\]	.	1A	-ri-	0r	.	0r	.
4G\	.	.	.	.	.	.	.
4F\	.	.	.	.	.	.	.
4E\	.	1G	-e	.	.	.	.
4D\	.	.	.	.	.	.	.
[2G\	.	.	.	.	.	.	.
=85	=85	=85	=85	=85	=85	=85	=85
4G\]	.	1c	e-	0r	.	0r	.
4E\	.	.	.	.	.	.	.
1F	.	.	.	.	.	.	.
.	.	1d	-lei-	.	.	.	.
4E\	.	.	.	.	.	.	.
4D\	.	.	.	.	.	.	.
=86	=86	=86	=86	=86	=86	=86	=86
4C/	.	1e	-son,]	0r	.	0r	.
4D\	.	.	.	.	.	.	.
4E\	.	.	.	.	.	.	.
4F\	.	.	.	.	.	.	.
2.G\	.	2r	.	.	.	.	.
.	.	[2e\	[e-	.	.	.	.
4F\	.	.	.	.	.	.	.
=87	=87	=87	=87	=87	=87	=87	=87
2E\	.	4e\]	.	0r	.	0r	.
.	.	4d\	.	.	.	.	.
2F\	.	1c	-lei-	.	.	.	.
1D	.	.	.	.	.	.	.
.	.	2B\	.	.	.	.	.
=88	=88	=88	=88	=88	=88	=88	=88
[0C	-son,]	0c	-son,]	1r	.	0r	.
.	.	.	.	[1c	[Ky-	.	.
=89	=89	=89	=89	=89	=89	=89	=89
0C_	.	1r	.	1c]	.	0r	.
.	.	[1c	[Ky-	1A	-ri-	.	.
=90	=90	=90	=90	=90	=90	=90	=90
0C_	.	1c]	.	1G	-e	0r	.
.	.	1A	-ri-	[1c	e-	.	.
=91	=91	=91	=91	=91	=91	=91	=91
0C]	.	1G	-e	2c\]	.	0cc	[Ky-
.	.	.	.	2d\	.	.	.
.	.	1c	e-	2e\	.	.	.
.	.	.	.	[2g\	.	.	.
=92	=92	=92	=92	=92	=92	=92	=92
0r	.	1d	-lei-	2g\]	.	1a	-ri-
.	.	.	.	2f#i\	.	.	.
.	.	2.e\	.	2.g\	-lei-	1g	-e
.	.	4d\	.	4f\	.	.	.
=93	=93	=93	=93	=93	=93	=93	=93
0r	.	2e\	.	2g\	.	1cc	e-
.	.	1f	.	1a	.	.	.
.	.	.	.	.	.	1dd	-lei-
.	.	4e\	.	4g\	.	.	.
.	.	4d\	.	4f\	.	.	.
=94	=94	=94	=94	=94	=94	=94	=94
0c	[e-	2c\	.	1e	.	1ee	-son,]
.	.	2.g\	.	.	.	.	.
.	.	.	.	2c\	.	2r	.
.	.	4f\	.	.	.	.	.
.	.	4e\	.	2d\	.	[2ee\	[e-
.	.	4d\	.	.	.	.	.
=95	=95	=95	=95	=95	=95	=95	=95
1A	-lei-	1c	.	2e\	.	4ee\]	.
.	.	.	.	.	.	4dd\	.
.	.	.	.	2f\	.	1cc	-lei-
1G	.	1d	.	1g	.	.	.
.	.	.	.	.	.	2b\	.
=96	=96	=96	=96	=96	=96	=96	=96
0Cl	-son.]	0cl	-son.]	0gl	-son.]	0ccl	-son.]
==	==	==	==	==	==	==	==
*-	*-	*-	*-	*-	*-	*-	*-
!!!RDF**kern: l=long note in original notation
!!!RDF**kern: i=editorial accidental
!!!RDF**kern: V=start of tuplet marker
!!!RDF**kern: Z=end of tuplet marker
!!!ENC: Richard Freedman, CRIM
!!!END: 2016/03/29/
!!!EED: Jesse Rodin
!!!EEV: 2016/03/30/
!!!ONB: Translated from MusicXML and edited on 2016/03/30/ by Craig Sapp
!!muse2ps: T^@{OPR}^u^@{ONM}{. }@{OTL}^C^@{COM}^i2I150v85,85,85,150Q16
